!!!OTL: Das Lied vom Erbluehen des Roeschens.
!!!OTL-incipit: NOCH NICHT ENTBLUEHT ZUR ROSE
!!!COM: Nach V. Righini
!!!ARE: Europa, Mitteleuropa, Deutschland
!!!SCT: F0868
!!!TXL: @@DE
!!!YEM: Copyright 1995, estate of Helmut Schaffrath.
**kern	**text
*ICvox	*
*clefG2	*
*M4/4	*
*met(c)	*
*k[b-]	*
*F:	*
!LO:TX:a:t=Mäßig und gefühlt.	!
{8.aL	1._Noch
16b-J	.
=1	=1
4cc	nicht
4cc	ent-
8ccL	-blüht
8ffJ	.
8eeL	ʒur
8ddJ	.
=2	=2
(4.cc	Ro-
8b-)	.
8g	-ſe,
8r}	.
{8gL	lag
8fJ	.
=3	=3
8eL	der
8gJ	.
8b-L	Na-
8aJ	.
8gL	-tur
8b-J	.
8ddL	im
8ccJ	.
=4	=4
4b-	Schooße
4a	.
4r}	.
{4cc	ein
=5	=5
4e	Röschen
4cc	.
4a	ʒart
4cc	und
=6	=6
2g	fein,
4r}	.
{8.gL	ge-
16aJ	.
=7	=7
4b-	-wiegt
4b-	von
4b-	Mai-
4b-	-en-
=8	=8
(4.b-	-lüf-
8a)	.
4g	-ten
8r}	.
{8g	ſchlief
=9	=9
8aL	es
8b-J	.
8ccL	in
8ddJ	.
4.ee-	ſanf-
8e-	-ten
=10	=10
8e-qq	.
4d	Düf-
4d	-ten
4r}	.
!LO:TUP:a	!
{12ddL	der
12b-	.
12gJ	.
=11	=11
((2cc	Mut-
16ccL)	.
16bn	.
16dd	.
16ccJ	.
16b-L	.
16aJ	.
16b-L)	-ter
16gJ	.
=12	=12
4f	ein.
4r	.
4r}	.
==	==
!!!AGN: Liebes - Lied
!!!ONB: ESAC (Essen Associative Code) Database: FINK
!!!AMT: simple quadruple
!!!AIN: vox
!!!EED: Helmut Schaffrath
!!!EEV: 1.0
!!Text: Baggesen
!!!RDF**kern: > = above
!!!GTL: Romanzen und Balladen
!!!source: Musikalischer Hausschatz der Deutschen. Eine Sammlung von über 1000 Liedern und Gesängen mit Singstimmen und Klavierbegleitung. Leipzig, Litterarisches Verlags-Haus.
!!!page: 622
!!!URL-scan: https://www.digitale-sammlungen.de/en/view/bsb11144622?page=558
!!!ENC: Anna Maria Matuszewska
!!!EEV: 2024/08/07
*-	*-